app/dist/common/images/sadr-logistics-co.svg

<svg height="18" viewBox="0 0 18 18" width="18" xmlns="http://www.w3.org/2000/svg"><path d="m0 0h18v18h-18z" fill="#1f4a50"/><path d="m6.5 7.75-2.5-1.24 5-2.51v2.5l-2.5 1.26z" fill="#fff"/><path d="m6.5 7.75-2.5 1.25 5 2.5v-2.5l-2.5-1.26z" fill="#fff"/><path d="m4 6.5v2.5l2.5-1.25z" fill="#c7a978"/><path d="m11.5 10.25 2.5-1.24-5-2.51v2.5zm0 0 2.5 1.25-5 2.5v-2.5z" fill="#fff"/><path d="m14 9v2.5l-2.5-1.25z" fill="#c7a978"/></svg>

<!-- by TradingView --><svg width="18" height="18" viewBox="0 0 18 18" xmlns="http://www.w3.org/2000/svg"><path fill="#1F4A50" d="M0 0h18v18H0z"/><path d="M6.5 7.75 4 6.51 9 4v2.5L6.5 7.76Z" fill="#fff"/><path d="M6.5 7.75 4 9l5 2.5V9L6.5 7.74Z" fill="#fff"/><path d="M4 6.5V9l2.5-1.25L4 6.5Z" fill="#C7A978"/><path d="M11.5 10.25 14 9.01 9 6.5V9l2.5 1.25ZM11.5 10.25 14 11.5 9 14v-2.5l2.5-1.25Z" fill="#fff"/><path d="M14 9v2.5l-2.5-1.25L14 9Z" fill="#C7A978"/></svg>
